images/svg/ABAUT US.svg

<svg width="27" height="32" viewBox="0 0 27 32" fill="none" xmlns="http://www.w3.org/2000/svg">
<path d="M9.27595 0.171875C5.50867 0.171875 2.43354 2.92632 2.43354 6.29815C2.43354 9.67021 5.50886 12.4227 9.27595 12.4227C13.0432 12.4227 16.1184 9.67004 16.1184 6.29815C16.1186 2.92609 13.0433 0.171875 9.27595 0.171875ZM9.27595 13.9642C4.15626 13.9642 0 17.6846 0 22.267V26.9724C0.000247215 27.2356 0.11719 27.4878 0.325354 27.674C0.533525 27.8598 0.815613 27.9641 1.10959 27.9638H8.93871C8.44721 26.8784 8.17054 25.6976 8.17054 24.461C8.17054 20.4788 10.9855 17.055 14.9155 15.6857C13.3532 14.61 11.4001 13.9642 9.27611 13.9642L9.27595 13.9642ZM18.693 17.0256C14.1183 17.0256 10.3861 20.3663 10.3861 24.4611C10.3861 28.5559 14.1183 31.8966 18.693 31.8966C23.2678 31.8966 27 28.5559 27 24.4611C27 20.3663 23.2678 17.0256 18.693 17.0256ZM18.8619 20.5477C19.0542 20.5608 19.2478 20.5891 19.4394 20.6349C20.9725 21.0016 21.976 22.344 21.7693 23.7525C21.6131 24.8178 20.7987 25.685 19.7249 26.0451V27.3831H19.7247C19.7314 27.6497 19.6176 27.9077 19.4092 28.0985C19.2008 28.2893 18.9153 28.3968 18.6171 28.3968C18.3189 28.3968 18.0334 28.2893 17.8249 28.0985C17.6165 27.9077 17.5028 27.6497 17.5094 27.3831V25.2316C17.506 24.9698 17.6185 24.7173 17.8224 24.5292C18.0264 24.3414 18.305 24.2334 18.5975 24.2287C18.6309 24.2281 18.664 24.2287 18.6971 24.2307C19.1513 24.1993 19.5083 23.9098 19.5688 23.4969C19.6329 23.0601 19.3411 22.658 18.8657 22.5443C18.3903 22.4305 17.9178 22.6425 17.73 23.0497L17.7302 23.0495C17.5799 23.3779 17.2452 23.6094 16.8526 23.6569C16.4597 23.7045 16.0686 23.5609 15.8261 23.2803C15.5835 22.9997 15.5269 22.6246 15.6772 22.2962C16.2073 21.1475 17.5156 20.4568 18.8615 20.5478L18.8619 20.5477Z" fill="#CAD3DB"/>
</svg>

<svg xmlns="http://www.w3.org/2000/svg" width="27" height="32" fill="none"><path fill="#CAD3DB" d="M9.276.172c-3.767 0-6.842 2.754-6.842 6.126 0 3.372 3.075 6.125 6.842 6.125 3.767 0 6.842-2.753 6.842-6.125S13.043.172 9.276.172Zm0 13.792c-5.12 0-9.276 3.72-9.276 8.303v4.705c0 .264.117.516.325.702.209.186.49.29.785.29h7.829a8.46 8.46 0 0 1-.768-3.503c0-3.982 2.815-7.406 6.745-8.775-1.563-1.076-3.516-1.722-5.64-1.722Zm9.417 3.062c-4.575 0-8.307 3.34-8.307 7.435s3.732 7.436 8.307 7.436S27 28.556 27 24.46s-3.732-7.435-8.307-7.435Zm.169 3.522c.192.013.386.041.577.087 1.534.367 2.537 1.709 2.33 3.117-.156 1.066-.97 1.933-2.044 2.293v1.338a.939.939 0 0 1-.316.716c-.208.19-.494.298-.792.298-.298 0-.584-.108-.792-.298a.939.939 0 0 1-.316-.716v-2.151a.94.94 0 0 1 .313-.703 1.174 1.174 0 0 1 .875-.298c.454-.032.811-.321.872-.734.064-.437-.228-.839-.703-.953-.476-.114-.948.098-1.136.506-.15.328-.485.56-.877.607a1.174 1.174 0 0 1-1.027-.377.909.909 0 0 1-.149-.984c.53-1.148 1.839-1.84 3.184-1.748Z"/></svg>
